build/img/svg/assortment-select-item.svg

<svg width="10" height="7" viewBox="0 0 10 7" fill="none" xmlns="http://www.w3.org/2000/svg">
<path d="M4.99342 5.825L8.84082 1.325C9.0864 1.025 9.0864 0.525 8.84082 0.225C8.59524 -0.075 8.18594 -0.075 7.94036 0.225L4.50227 4.225L1.06417 0.225C0.818594 -0.075 0.409297 -0.075 0.163719 0.225C0.0818594 0.425 0 0.625 0 0.825C0 1.025 0.0818594 1.225 0.163719 1.325L4.01111 5.825C4.33855 6.125 4.66599 6.125 4.99342 5.825Z" fill="black"/>
</svg>

<svg width="10" height="7" fill="none" xmlns="http://www.w3.org/2000/svg"><path d="m4.993 5.825 3.848-4.5c.245-.3.245-.8 0-1.1a.563.563 0 0 0-.9 0l-3.439 4-3.438-4a.563.563 0 0 0-.9 0c-.082.2-.164.4-.164.6 0 .2.082.4.164.5l3.847 4.5c.328.3.655.3.982 0Z" fill="#000"/></svg>
